local/share/icons/dracula-icons-main/scalable/mimetypes/text-x-java.svg

<?xml version="1.0" encoding="UTF-8"?>
<svg xmlns="http://www.w3.org/2000/svg" xmlns:xlink="http://www.w3.org/1999/xlink" width="64" height="64" viewBox="0 0 64 64">
<defs>
<filter id="filter-remove-color" x="0%" y="0%" width="100%" height="100%">
<feColorMatrix color-interpolation-filters="sRGB" values="0 0 0 0 1 0 0 0 0 1 0 0 0 0 1 0 0 0 1 0" />
</filter>
<mask id="mask-0">
<g filter="url(#filter-remove-color)">
<rect x="-6.4" y="-6.4" width="76.8" height="76.8" fill="rgb(0%, 0%, 0%)" fill-opacity="0.1"/>
</g>
</mask>
<linearGradient id="linear-pattern-0" gradientUnits="userSpaceOnUse" x1="49.570999" y1="52.714001" x2="51.714001" y2="54.856998" gradientTransform="matrix(0.617345, 0, 0, 0.617345, -18.167916, -19.050025)">
<stop offset="0" stop-color="rgb(0%, 0%, 0%)" stop-opacity="1"/>
<stop offset="1" stop-color="rgb(0%, 0%, 0%)" stop-opacity="0"/>
</linearGradient>
<clipPath id="clip-0">
<rect x="0" y="0" width="17" height="17"/>
</clipPath>
<g id="source-3725" clip-path="url(#clip-0)">
<path fill-rule="evenodd" fill="url(#linear-pattern-0)" d="M 14.816406 12.171875 L 11.113281 15.875 L 13.492188 15.875 C 14.226562 15.875 14.816406 15.285156 14.816406 14.550781 Z M 14.816406 12.171875 "/>
</g>
</defs>
<path fill-rule="nonzero" fill="rgb(95.686275%, 95.686275%, 95.686275%)" fill-opacity="1" d="M 3.441406 1.058594 L 13.492188 1.058594 C 14.222656 1.058594 14.816406 1.652344 14.816406 2.382812 L 14.816406 14.550781 C 14.816406 15.28125 14.222656 15.875 13.492188 15.875 L 3.441406 15.875 C 2.707031 15.875 2.117188 15.28125 2.117188 14.550781 L 2.117188 2.382812 C 2.117188 1.652344 2.707031 1.058594 3.441406 1.058594 Z M 3.441406 1.058594 "/>
<g mask="url(#mask-0)">
<use xlink:href="#source-3725"/>
</g>
<path fill-rule="evenodd" fill="rgb(86.666667%, 30.980392%, 21.568627%)" fill-opacity="1" d="M 9.261719 4.496094 C 9.59375 5.808594 8.085938 6.203125 7.542969 7.019531 C 7.175781 7.574219 7.726562 8.171875 8.476562 8.851562 C 8.183594 8.1875 7.191406 7.609375 8.476562 6.589844 C 10.085938 5.324219 9.261719 4.496094 9.261719 4.496094 Z M 10.253906 6.117188 C 10.253906 6.117188 7.539062 6.796875 8.835938 8.292969 C 9.21875 8.734375 8.734375 9.128906 8.734375 9.128906 C 8.734375 9.128906 9.707031 8.628906 9.261719 8 C 8.84375 7.414062 8.523438 7.121094 10.253906 6.117188 Z M 10.734375 8.789062 C 10.640625 8.789062 10.539062 8.808594 10.433594 8.84375 C 10.351562 8.875 10.308594 8.941406 10.308594 8.941406 C 10.308594 8.941406 10.359375 8.921875 10.476562 8.894531 C 10.960938 8.796875 11.648438 9.539062 10.160156 10.3125 C 10.152344 10.332031 10.128906 10.351562 10.128906 10.351562 C 11.898438 9.886719 11.511719 8.789062 10.734375 8.789062 Z M 7.546875 8.867188 C 7.429688 8.863281 6.925781 8.871094 6.320312 9.160156 C 5.507812 9.554688 8.335938 9.734375 9.800781 9.351562 C 9.953125 9.246094 10.164062 9.15625 10.164062 9.15625 C 10.164062 9.15625 9.566406 9.261719 8.96875 9.3125 C 8.238281 9.375 7.453125 9.386719 7.058594 9.332031 C 6.128906 9.210938 7.570312 8.867188 7.570312 8.867188 C 7.570312 8.867188 7.5625 8.867188 7.546875 8.867188 Z M 7.234375 9.765625 C 5.890625 10.214844 7.984375 10.71875 9.863281 10.171875 C 9.660156 10.101562 9.535156 9.972656 9.535156 9.972656 C 8.617188 10.148438 8.085938 10.140625 7.414062 10.074219 C 6.894531 10.019531 7.234375 9.765625 7.234375 9.765625 Z M 7.425781 10.636719 C 6.203125 10.976562 8.167969 11.679688 9.722656 11.015625 C 9.464844 10.917969 9.285156 10.800781 9.285156 10.800781 C 8.589844 10.933594 8.269531 10.945312 7.640625 10.871094 C 7.121094 10.8125 7.425781 10.636719 7.425781 10.636719 Z M 6.578125 11.210938 C 6.027344 11.230469 4.957031 11.722656 5.9375 11.882812 C 9.105469 12.394531 11.710938 11.648438 10.890625 11.277344 C 10.890625 11.277344 11.113281 11.464844 10.644531 11.605469 C 9.746094 11.878906 6.910156 11.960938 6.121094 11.617188 C 5.839844 11.496094 6.371094 11.324219 6.539062 11.289062 C 6.710938 11.25 6.8125 11.257812 6.8125 11.257812 C 6.761719 11.222656 6.679688 11.210938 6.578125 11.210938 Z M 11.394531 11.683594 C 11.394531 11.683594 11.292969 11.941406 10.210938 12.144531 C 8.992188 12.371094 7.488281 12.347656 6.59375 12.199219 C 6.59375 12.199219 6.777344 12.351562 7.71875 12.410156 C 9.144531 12.5 11.339844 12.359375 11.394531 11.683594 Z M 11.394531 11.683594 "/>
</svg>

<svg width="64" height="64" version="1.1" viewBox="0 0 16.933 16.933" xmlns="http://www.w3.org/2000/svg">
 <defs>
  <linearGradient id="a" x1="49.571" x2="51.714" y1="52.714" y2="54.857" gradientTransform="matrix(2.3333,0,0,2.3333,-68.667,-72.001)" gradientUnits="userSpaceOnUse">
   <stop offset="0"/>
   <stop stop-opacity="0" offset="1"/>
  </linearGradient>
 </defs>
 <g transform="scale(.26458)">
  <rect x="8" y="4" width="48" height="56" ry="5" fill="#f4f4f4" style="paint-order:stroke fill markers"/>
  <path d="m56 46-14 14h9c2.77 0 5-2.23 5-5z" fill="url(#a)" fill-rule="evenodd" opacity=".1" stroke-width="8.8191" style="paint-order:stroke fill markers"/>
 </g>
 <path d="m9.2608 4.4978c0.33263 1.3104-1.1733 1.7062-1.7168 2.5223-0.37011 0.55604 0.18168 1.1535 0.93397 1.8322-0.29336-0.66316-1.2882-1.2433 4e-4 -2.2611 1.6069-1.2684 0.7824-2.0934 0.7824-2.0934zm0.99418 1.6213c1.8e-5 0-2.7172 0.67846-1.4195 2.1738 0.38309 0.44098-0.10049 0.83749-0.10049 0.83749s0.97214-0.50173 0.52578-1.1304c-0.41705-0.58598-0.73675-0.87708 0.99425-1.8809zm0.4812 2.6711c-0.09547 3.25e-4 -0.19685 0.01689-0.30085 0.05343-0.08338 0.02952-0.12714 0.09814-0.12714 0.09814s0.05272-0.02122 0.17025-0.04575c0.48064-0.10015 1.1693 0.64343-0.31995 1.4171-0.0069 0.01844-0.02978 0.0391-0.02976 0.0391 1.7711-0.46559 1.3849-1.5635 0.60744-1.562zm-3.191 0.07551c-0.11666-0.0027-0.621 0.0048-1.2237 0.29635-0.8148 0.39398 2.0151 0.57346 3.4802 0.18811 0.15232-0.10395 0.36272-0.1942 0.36272-0.1942s-0.59924 0.10713-1.1963 0.15724c-0.73082 0.06131-1.5148 0.07342-1.9083 0.02076-0.9317-0.12456 0.51076-0.46722 0.51076-0.46722s-0.00873-7e-4 -0.0254-1e-3zm-0.31047 0.90144c-1.3441 0.44609 0.74823 0.95234 2.6267 0.40286-0.19959-0.07036-0.32632-0.19911-0.32632-0.19911-0.91846 0.17676-1.449 0.17111-2.121 0.10174-0.51952-0.05369-0.17946-0.30549-0.17946-0.30549zm0.18998 0.86891c-1.2204 0.341 0.74253 1.0454 2.2965 0.37961-0.25451-0.0989-0.43705-0.21309-0.43705-0.21309-0.69296 0.13098-1.0144 0.1413-1.6434 0.06949-0.51913-0.05954-0.216-0.236-0.216-0.236zm-0.84766 0.57609c-0.54806 0.01691-1.6199 0.50969-0.63969 0.66876 3.168 0.51351 5.7749-0.2313 4.9532-0.60204 0 0 0.22444 0.18505-0.24714 0.32812-0.89672 0.27161-3.733 0.35353-4.5208 0.01087-0.28299-0.12326 0.24792-0.29411 0.41497-0.33019 0.17418-0.03768 0.27365-0.0308 0.27365-0.0308-0.04921-0.03465-0.13278-0.04784-0.23427-0.04471zm4.8165 0.47096s-0.09986 0.25639-1.1812 0.45982c-1.22 0.22968-2.725 0.2029-3.6173 0.05558 0 0 0.18277 0.15132 1.1221 0.21178 1.4292 0.09137 3.6245-0.05084 3.6765-0.72717z" clip-rule="evenodd" enable-background="new" fill="#dd4f37" fill-rule="evenodd" stroke-width=".25371"/>
</svg>
